common/src/main/resources/icons/actions/menu-cut.svg

<svg xmlns="http://www.w3.org/2000/svg" width="16" height="16" data-big="true" viewBox="0 0 24 24"><path fill="#82AAFF" d="m19 3-6 6 2 2 7-7V3m-10 9.5a.5.5 0 0 1-.5-.5.5.5 0 0 1 .5-.5.5.5 0 0 1 .5.5.5.5 0 0 1-.5.5M6 20a2 2 0 0 1-2-2 2 2 0 0 1 2-2 2 2 0 0 1 2 2 2 2 0 0 1-2 2M6 8a2 2 0 0 1-2-2 2 2 0 0 1 2-2 2 2 0 0 1 2 2 2 2 0 0 1-2 2m3.64-.36c.23-.5.36-1.05.36-1.64a4 4 0 0 0-4-4 4 4 0 0 0-4 4 4 4 0 0 0 4 4c.59 0 1.14-.13 1.64-.36L10 12l-2.36 2.36C7.14 14.13 6.59 14 6 14a4 4 0 0 0-4 4 4 4 0 0 0 4 4 4 4 0 0 0 4-4c0-.59-.13-1.14-.36-1.64L12 14l7 7h3v-1z"/></svg>

<!--
  - The MIT License (MIT)
  -
  - Copyright (c) 2015-2024 Elior "Mallowigi" Boukhobza
  -
  - Permission is hereby granted, free of charge, to any person obtaining a copy
  - of this software and associated documentation files (the "Software"), to deal
  - in the Software without restriction, including without limitation the rights
  - to use, copy, modify, merge, publish, distribute, sublicense, and/or sell
  - copies of the Software, and to permit persons to whom the Software is
  - furnished to do so, subject to the following conditions:
  -
  - The above copyright notice and this permission notice shall be included in all
  - copies or substantial portions of the Software.
  -
  - THE SOFTWARE IS PROVIDED "AS IS", WITHOUT WARRANTY OF ANY KIND, EXPRESS OR
  - IMPLIED, INCLUDING BUT NOT LIMITED TO THE WARRANTIES OF MERCHANTABILITY,
  - FITNESS FOR A PARTICULAR PURPOSE AND NONINFRINGEMENT. IN NO EVENT SHALL THE
  - AUTHORS OR COPYRIGHT HOLDERS BE LIABLE FOR ANY CLAIM, DAMAGES OR OTHER
  - LIABILITY, WHETHER IN AN ACTION OF CONTRACT, TORT OR OTHERWISE, ARISING FROM,
  - OUT OF OR IN CONNECTION WITH THE SOFTWARE OR THE USE OR OTHER DEALINGS IN THE
  - SOFTWARE.
  -->


<svg data-big="true" xmlns="http://www.w3.org/2000/svg" version="1.1" width="16px" height="16px" viewBox="0 0 24 24">
  <path fill="#82AAFF"
        d="M19,3L13,9L15,11L22,4V3M12,12.5A0.5,0.5 0 0,1 11.5,12A0.5,0.5 0 0,1 12,11.5A0.5,0.5 0 0,1 12.5,12A0.5,0.5 0 0,1 12,12.5M6,20A2,2 0 0,1 4,18C4,16.89 4.9,16 6,16A2,2 0 0,1 8,18C8,19.11 7.1,20 6,20M6,8A2,2 0 0,1 4,6C4,4.89 4.9,4 6,4A2,2 0 0,1 8,6C8,7.11 7.1,8 6,8M9.64,7.64C9.87,7.14 10,6.59 10,6A4,4 0 0,0 6,2A4,4 0 0,0 2,6A4,4 0 0,0 6,10C6.59,10 7.14,9.87 7.64,9.64L10,12L7.64,14.36C7.14,14.13 6.59,14 6,14A4,4 0 0,0 2,18A4,4 0 0,0 6,22A4,4 0 0,0 10,18C10,17.41 9.87,16.86 9.64,16.36L12,14L19,21H22V20L9.64,7.64Z"/>
</svg>
